X:740
T:Money in both pockets
R:Jig
O:Ireland
B:O'Neill's 746
B:Kerr's First p40
S:My arrangement from various sources
Z:Transcription, minor arr., chords:Mike Long
M:6/8
L:1/8
K:D
c|\
"D"d2F FEF|"A"ABA ABc|"D"d2F FEF|"A"A2a "(G)"gfe|\
"D"d2F FEF|"A"ABA AGF|"G"EFE EFA|"(A)"BcB B2:|
|:A|\
"D"dfa afd|"A"cea ecA|"D"dfa afd|"G"g3 f2g|\
"D"agf bag|"A"agf ede|"Bm"fdB AFA|"G"BcB B2:|
